!!!COA:	Josquin des Prez
!!!CDT:	~1450-1521/08/27
!!!OTL@@LAT:	Cantate Domino canticum novum
!!!AGN:	Motet
!!!SCT:	NJE 15.6
!!!SCA:	New Josquin Edition 15.6
!!!voices:	5
**kern	**kern	**kern	**kern	**kern
*staff5	*staff4	*staff3	*staff2	*staff1
*Ivox	*Ivox	*Ivox	*Ivox	*Ivox
*I"Bassus	*I"Tenor	*I"Altus	*I"Discantus2	*I"Discantus1
*I'B	*I'T	*I'A	*I'D2	*I'D1
*clefF4	*clefGv2	*clefGv2	*clefG2	*clefG2
*k[b-]	*k[b-]	*k[b-]	*k[b-]	*k[b-]
*M2/1	*M2/1	*M2/1	*M2/1	*M2/1
*met(C|)	*met(C|)	*met(C|)	*met(C|)	*met(C|)
=1-	=1-	=1-	=1-	=1-
0r	0r	0G	0g	0g
=2	=2	=2	=2	=2
0r	0r	1G	1g	1b-
.	.	1d	1f	1a
=3	=3	=3	=3	=3
0r	0r	1G	1g	1b-
.	.	1A	1e	1cc
=4	=4	=4	=4	=4
0r	0r	1.B-	1d	1.dd
.	.	.	2r	.
.	.	4A/	2d/	4cc\
.	.	4G/	.	4b-\
=5	=5	=5	=5	=5
0r	0r	2F/	2.f/	2a/
.	.	2B-\	.	2b-\
.	.	.	4g/	.
.	.	2A/	2a/	2cc\
.	.	2G/	[2b-\	[2dd\
=6	=6	=6	=6	=6
0r	0r	2.B-\	4b-\]	2dd\]
.	.	.	4a/	.
.	.	.	1g	4cc\
.	.	4c\	.	4b-\
.	.	1d	.	1a
.	.	.	2f#i/	.
=7	=7	=7	=7	=7
0G	0G	0G	0g	0g
=8	=8	=8	=8	=8
1G	1B-	0r	0r	0r
1F	1A	.	.	.
=9	=9	=9	=9	=9
1G	1B-	0r	0r	0r
1E	1c	.	.	.
=10	=10	=10	=10	=10
1.D	1d	0r	0r	0r
.	2r	.	.	.
[2F\	2D/	.	.	.
=11	=11	=11	=11	=11
2F\]	2.F/	0r	0r	0r
4E\	.	.	.	.
4D\	4G/	.	.	.
2C/	2A/	.	.	.
[2D\	2B-\	.	.	.
=12	=12	=12	=12	=12
4D\]	2A/	0r	0r	0r
4C/	.	.	.	.
2BB-/	1G	.	.	.
1AA	.	.	.	.
.	2F#i/	.	.	.
=13	=13	=13	=13	=13
1GG	1G	0G	0b-	0dd
2r	2r	.	.	.
2GG/	2D/	.	.	.
=14	=14	=14	=14	=14
1GG	1D	1G	1b-	1b-
1GG	1D	1G	2g/	1b-
.	.	.	[2b-\	.
=15	=15	=15	=15	=15
1C	1E	1G	2b-\]	1cc
.	.	.	4a/	.
.	.	.	4g/	.
1C	1E	1c	1a	1cc
=16	=16	=16	=16	=16
1GG	1D	1B-	0b-	0dd
1r	2r	1B-	.	.
.	[2d\	.	.	.
=17	=17	=17	=17	=17
1G	4d\]	2.B-\	1r	1r
.	4c\	.	.	.
.	4B-\	.	.	.
.	4A/	4c\	.	.
2G\	1B-	2d\	1g	1b-
2G\	.	2e\	.	.
=18	=18	=18	=18	=18
1F	1A	2f\	2a/	2cc\
.	.	4e\	2.cc\	2cc\
.	.	4d\	.	.
1F	2F/	1c	.	2cc\
.	.	.	4b-\	.
.	[2A/	.	4a/	2cc\
.	.	.	4g/	.
=19	=19	=19	=19	=19
1D	2A/]	2r	1f	2.dd\
.	2B-\	2f\	.	.
.	.	.	.	4cc\
2E\	2G/	2B-\	2g/	2b-\
2F\	2F/	[2d\	2a/	2a/
=20	=20	=20	=20	=20
2BB-/	2D/	4d\]	2f/	1b-
.	.	4c\	.	.
2D\	1F	1B-	4e/	.
.	.	.	4d/	.
1C	.	.	1e	1cc
.	2E/	2A/	.	.
=21	=21	=21	=21	=21
0BB-	0F	1B-	1d	0dd
.	.	2r	1r	.
.	.	2d\	.	.
=22	=22	=22	=22	=22
2r	1r	2c\	1e	2r
2C/	.	2c\	.	2g/
2C/	2r	1c	2e/	2g/
2C/	2G/	.	2e/	2g/
=23	=23	=23	=23	=23
1C	2G/	1G	1e	1g
.	2G/	.	.	.
1GG	1G	2r	1d	1b-
.	.	[2d\	.	.
=24	=24	=24	=24	=24
2r	1D	2d\]	1.f	2r
1D	.	2d\	.	1a
.	2r	1d	.	.
2D\	[2A/	.	2f/	2a/
=25	=25	=25	=25	=25
1D	2A/]	1A	1f	1a
.	2A/	.	.	.
1AA	2A/	2r	1e	1cc
.	4G/	[2c\	.	.
.	4F/	.	.	.
=26	=26	=26	=26	=26
1C	1E	4c\]	2r	1cc
.	.	4B-\	.	.
.	.	2.G/	2e/	.
2BB-/	2D/	.	2g/	2dd\
.	.	4A/	.	.
2GG/	[2d\	4B-\	2g/	[2b-\
.	.	4c\	.	.
=27	=27	=27	=27	=27
2.BB-/	4d\]	1d	2f/	4b-\]
.	4c\	.	.	4a/
.	2B-\	.	2e/	1g
4C/	.	.	.	.
1D	1A	1d	2r	.
.	.	.	2a/	2f#i/
=28	=28	=28	=28	=28
1GG	1G	1d	1b-	0g
2r	2r	2c\	2g/	.
[2GG/	2G/	[2d\	[2b-\	.
=29	=29	=29	=29	=29
4GG/]	2.D/	2d\]	2b-\]	1r
4AA/	.	.	.	.
4BB-/	.	4c\	4a/	.
4C/	4E/	4B-\	4g/	.
2D\	1F	1A	1f	1a
2D\	.	.	.	.
=30	=30	=30	=30	=30
1GG	1D	2G/	1g	1b-
.	.	2d\	.	.
2r	2r	2c\	2f/	2a/
[2GG/	2G/	[2d\	[2g/	[2b-\
=31	=31	=31	=31	=31
4GG/]	2.D/	2d\]	2g/]	2b-\]
4AA/	.	.	.	.
4BB-/	.	4c\	4f/	4a/
4C/	4E/	4B-\	4e/	4g/
2D\	1F	1A	1d	1f
2D\	.	.	.	.
=32	=32	=32	=32	=32
1GG	1B-	2G/	0r	1g
.	.	2d\	.	.
2r	2A/	2c\	.	2f/
[2GG/	2B-\	[2d\	.	[2g/
=33	=33	=33	=33	=33
4GG/]	1G	2d\]	1g	2g/]
4AA/	.	.	.	.
4BB-/	.	4c\	.	4f/
4C/	.	4B-\	.	4e/
1D	2r	2.A/	2.f/	1d
.	[2A/	.	.	.
.	.	4B-\	4g/	.
=34	=34	=34	=34	=34
0r	2A/]	2c\	2a/	0r
.	2G/	2.d\	2b-\	.
.	2F/	.	2a/	.
.	.	4c\	.	.
.	2D/	2d\	[2b-\	.
=35	=35	=35	=35	=35
0r	2G/	2B-\	4b-\]	0r
.	.	.	4a/	.
.	2C/	2c\	1g	.
.	1D	1A	.	.
.	.	.	2f#i/	.
=36	=36	=36	=36	=36
0GG	1r	0G	[0g	0dd
.	1D	.	.	.
=37	=37	=37	=37	=37
1BB-	1D	1r	0g]	1dd
1C	1E	1G	.	1cc
=38	=38	=38	=38	=38
1D	1F	1B-	0r	2b-\
.	.	.	.	1b-
1E	1G	1c	.	.
.	.	.	.	4a/
.	.	.	.	4g/
=39	=39	=39	=39	=39
1D	1A	1d	0r	1f
2r	1G	1e	.	1g
[2G\	.	.	.	.
=40	=40	=40	=40	=40
2G\]	2r	1d	0r	4d/
.	.	.	.	4e/
4F\	2B-\	.	.	4f/
4E\	.	.	.	4g/
2F\	2A/	2r	.	2a/
2G\	2G/	[2d\	.	2b-\
=41	=41	=41	=41	=41
1D	1F	2d\]	0r	0a
.	.	4c\	.	.
.	.	4B-\	.	.
1F	2.A/	2c\	.	.
.	.	2d\	.	.
.	4B-\	.	.	.
=42	=42	=42	=42	=42
1F	2c\	1A	0r	0r
.	4B-\	.	.	.
.	4A/	.	.	.
2E\	2G/	2.c\	.	.
[2F\	[2A/	.	.	.
.	.	4B-\	.	.
=43	=43	=43	=43	=43
2F\]	2A/]	2A/	1r	0r
4E\	1d	4G/	.	.
4D\	.	4F/	.	.
1E	.	1G	1g	.
.	2c#i\	.	.	.
=44	=44	=44	=44	=44
2.D\	1d	2.F/	2.a/	0r
4E\	.	4G/	4g/	.
2F\	1r	2A/	2f/	.
[2G\	.	[2B-\	[2e/	.
=45	=45	=45	=45	=45
4G\]	0r	2B-\]	2e/]	0r
4F\	.	.	.	.
4E\	.	1A	1d	.
4D\	.	.	.	.
1E	.	.	.	.
.	.	2G/	2c#i/	.
=46	=46	=46	=46	=46
0D	0r	1A	0d	1r
.	.	1B-	.	1dd
=47	=47	=47	=47	=47
0r	0r	1A	2r	2ee\
.	.	.	2a/	2cc\
.	.	1r	1b-	2dd\
.	.	.	.	4cc\
.	.	.	.	4b-\
=48	=48	=48	=48	=48
0r	0r	1r	2a/	4cc\
.	.	.	.	4b-\
.	.	.	1g	4a/
.	.	.	.	4g/
.	.	2r	.	1a
.	.	2A/	2f/	.
=49	=49	=49	=49	=49
0r	0r	1B-	4g/	2g/
.	.	.	4f/	.
.	.	.	4e/	1dd
.	.	.	4d/	.
.	.	2A/	1e	.
.	.	2A/	.	2cc#i\
=50	=50	=50	=50	=50
0r	1r	2D/	0d	0dd
.	.	1G	.	.
.	1A	.	.	.
.	.	2F#i/	.	.
=51	=51	=51	=51	=51
1r	1B-	1G	0r	0r
1D	1A	1r	.	.
=52	=52	=52	=52	=52
1E	2G/	0r	0r	0r
.	2c\	.	.	.
1D	2B-\	.	.	.
.	[2A/	.	.	.
=53	=53	=53	=53	=53
2C/	2A/]	0r	0r	2r
2BB-/	1G	.	.	2g/
1AA	.	.	.	2a/
.	2F#i/	.	.	2cc\
=54	=54	=54	=54	=54
1GG	1G	0B-	0g	1b-
2r	2r	.	.	[1dd
2GG/	2G/	.	.	.
=55	=55	=55	=55	=55
1GG	1B-	1d	1g	2dd\]
.	.	.	.	2cc\
1GG	1B-	1d	1g	2b-\
.	.	.	.	4a/
.	.	.	.	4g/
=56	=56	=56	=56	=56
1D	1A	1d	2.a/	2.f/
.	.	.	4g/	4g/
2D\	2A/	2d\	2f/	2a/
[2GG/	[2B-\	[2d\	2e/	[2g/
=57	=57	=57	=57	=57
2GG/]	2B-\]	2d\]	2d/	4g/]
.	.	.	.	4a/
2GG/	2G/	1.d	2g/	2b-\
2D\	2A/	.	2f/	2a/
2GG/	2B-\	.	2d/	[2g/
=58	=58	=58	=58	=58
2C/	2c\	2c\	2e/	2g/]
2FF/	2A/	2c\	2f/	1f
1C	1G	1c	1g	.
.	.	.	.	2e/
=59	=59	=59	=59	=59
1FF	1F	2r	2.a/	1f
.	.	1c	.	.
.	.	.	8g/L	.
.	.	.	8f/J	.
1r	2r	.	4e/	1r
.	.	.	4d/	.
.	2G/	2B-\	[2g/	.
=60	=60	=60	=60	=60
0r	2E/	2c\	2g/]	1r
.	2F/	2A/	1f	.
.	1C	1G	.	1g
.	.	.	2e/	.
=61	=61	=61	=61	=61
1D	1F	4F/	1f	1a
.	.	4G/	.	.
.	.	4A/	.	.
.	.	4B-\	.	.
2C/	2E/	2c\	1r	2a/
2BB-/	[2D/	[2d\	.	[2b-\
=62	=62	=62	=62	=62
1GG	2D/]	2d\]	1r	2b-\]
.	1G	4c\	.	4a/
.	.	4B-\	.	4g/
1D	.	1A	2r	1a
.	2F#i/	.	2f/	.
=63	=63	=63	=63	=63
2r	1G	1G	1b-	1d
2G\	.	.	.	.
2F\	1r	1r	2a/	2r
[2G\	.	.	2b-\	2d/
=64	=64	=64	=64	=64
2G\]	2r	0r	2b-\	1e
1A	1c	.	2cc\	.
.	.	.	2a/	1f
4G\	4B-\	.	[2dd\	.
4F\	4A/	.	.	.
=65	=65	=65	=65	=65
1E	1G	1r	2dd\]	1g
.	.	.	2cc#i\	.
2D\	2A/	1d	1dd	2f/
[2G\	[2B-\	.	.	[2g/
=66	=66	=66	=66	=66
4G\]	4B-\]	2e\	0r	4g/]
4F\	4A/	.	.	4a/
4E\	4G/	1d	.	1b-
4D\	4F/	.	.	.
1E	1G	.	.	.
.	.	2c\	.	4a/
.	.	.	.	4g/
=67	=67	=67	=67	=67
2D\	2A/	2d\	0r	2f/
2BB-/	2B-\	1f	.	1b-
1F	1c	.	.	.
.	.	[2f\	.	2a/
=68	=68	=68	=68	=68
1BB-	0B-	4f\]	0r	1b-
.	.	4e\	.	.
.	.	4d\	.	.
.	.	4c\	.	.
2r	.	1d	.	2r
[2BB-/	.	.	.	2b-\
=69	=69	=69	=69	=69
4BB-/]	1r	0d	0r	2b-\
4C/	.	.	.	.
4D\	.	.	.	2b-\
4E\	.	.	.	.
2F\	2r	.	.	2a/
[2G\	2B-\	.	.	[2b-\
=70	=70	=70	=70	=70
4G\]	2B-\	0r	1dd	2b-\]
4F\	.	.	.	.
2G\	2B-\	.	.	4a/
.	.	.	.	4g/
1D	2A/	.	2dd\	1f
.	[2B-\	.	[2dd\	.
=71	=71	=71	=71	=71
1GG	2B-\]	0r	2dd\]	2r
.	4A/	.	4cc\	2b-\
.	4G/	.	4b-\	.
1r	2F/	.	2a/	2cc\
.	[2B-\	.	[2b-\	[2dd\
=72	=72	=72	=72	=72
1r	2B-\]	1G	2b-\]	2dd\]
.	2B-\	.	4a/	4cc\
.	.	.	4g/	4b-\
2r	2c\	2A/	2f/	2a/
2GG/	[2d\	[2G/	2g/	[2b-\
=73	=73	=73	=73	=73
2GG/	4d\]	4G/]	2d/	4b-\]
.	4c\	4A/	.	4a/
2GG/	2B-\	4B-\	2g/	1g
.	.	4c\	.	.
1D	1A	1d	1a	.
.	.	.	.	2f#i/
=74	=74	=74	=74	=74
2GG/	1G	0d	1b-	1g
2G\	.	.	.	.
2F\	1r	.	2a/	2r
[2G\	.	.	[2b-\	2g/
=75	=75	=75	=75	=75
4G\]	0r	1B-	4b-\]	1dd
4A\	.	.	4a/	.
2B-\	.	.	1g	.
1A	.	1c	.	1cc
.	.	.	2f#i/	.
=76	=76	=76	=76	=76
1G	1r	1d	0g	4b-\
.	.	.	.	4a/
.	.	.	.	4b-\
.	.	.	.	4cc\
1r	2r	1B-	.	1dd
.	2G/	.	.	.
=77	=77	=77	=77	=77
1C	2A/	1c	1r	2r
.	2G/	.	.	2g/
2C/	1c	1r	2r	2a/
2C/	.	.	2g/	2g/
=78	=78	=78	=78	=78
1C	2A/	0r	2a/	1cc
.	2.c\	.	2g/	.
2r	.	.	1cc	1a
.	4B-\	.	.	.
2C/	4A/	.	.	.
.	4G/	.	.	.
=79	=79	=79	=79	=79
2D\	2F/	2r	1a	0r
2C/	2E/	2c\	.	.
1F	1A	2d\	1r	.
.	.	2c\	.	.
=80	=80	=80	=80	=80
0D	2r	1f	1r	1a
.	1A	.	.	.
.	.	1d	2r	2a/
.	[2d\	.	[2f/	[2b-\
=81	=81	=81	=81	=81
0r	2d\]	0r	2f/]	2b-\]
.	4c\	.	4e/	4a/
.	4B-\	.	4d/	4g/
.	2c\	.	2e/	2a/
.	[2d\	.	[2f/	[2b-\
=82	=82	=82	=82	=82
0r	4d\]	0r	2f/]	2b-\]
.	4c\	.	.	.
.	4B-\	.	1e	1a
.	4A/	.	.	.
.	1B-	.	.	.
.	.	.	2d/	2g/
=83	=83	=83	=83	=83
1AA	0A	2.c\	1e	0a
.	.	4B-\	.	.
2AA/	.	2A/	1r	.
2E\	.	2G/	.	.
=84	=84	=84	=84	=84
2D\	0r	2F/	0r	0r
4C/	.	2G/	.	.
4BB-/	.	.	.	.
2C/	.	2A/	.	.
[2D\	.	[2B-\	.	.
=85	=85	=85	=85	=85
4D\]	0r	4B-\]	0r	0r
4C/	.	4A/	.	.
4BB-/	.	1A	.	.
4AA/	.	.	.	.
1BB-	.	.	.	.
.	.	2G/	.	.
=86	=86	=86	=86	=86
1AA	1r	1A	1.a	1.cc
1r	[1A	[1c	.	.
.	.	.	2a/	2cc\
=87	=87	=87	=87	=87
1.F	2A/]	2c\]	1a	1cc
.	2A/	2c\	.	.
.	1A	1c	1a	1cc
2E\	.	.	.	.
=88	=88	=88	=88	=88
1F	1A	1c	1f	1a
1F	1F	1A	2r	2r
.	.	.	[2f/	[2a/
=89	=89	=89	=89	=89
1D	2r	2r	2f/]	2a/]
.	1F	1A	2f/	2a/
2r	.	.	2f/	2a/
[2D\	2F/	2A/	2f/	2a/
=90	=90	=90	=90	=90
2D\]	2F/	2A/	2f/	2a/
2D\	2F/	2A/	2f/	2a/
2D\	1F	2A/	1d	1f
2D\	.	2A/	.	.
=91	=91	=91	=91	=91
2D\	0D	2F/	2r	1r
2D\	.	2.f\	1a	.
1BB-	.	.	.	1f
.	.	4e\	.	.
.	.	4d\	[2b-\	.
.	.	4c\	.	.
=92	=92	=92	=92	=92
0r	1E	2B-\	4b-\]	1g
.	.	.	4a/	.
.	.	2c\	1g	.
.	1D	1A	.	1a
.	.	.	2f/	.
=93	=93	=93	=93	=93
0r	2r	1G	2g/	1b-
.	2G/	.	2dd\	.
.	2G/	[1d	2b-\	2g/
.	2F/	.	[2a/	[2a/
=94	=94	=94	=94	=94
2r	2A/	2d\]	2a/]	2a/]
2.GG/	2.G/	2d\	1dd	1b-
.	.	1d	.	.
4AA/	4F/	.	.	.
4BB-/	4D/	.	4cc\	4a/
4C/	4E/	.	4b-\	4g/
=95	=95	=95	=95	=95
2D\	2F/	0d	2a/	2f/
2GG/	2D/	.	2g/	1g
1D	2.F/	.	1a	.
.	.	.	.	2f#i/
.	8G/L	.	.	.
.	8A/J	.	.	.
=96	=96	=96	=96	=96
1GG	[0B-	1r	0g	0g
[1G	.	1d	.	.
=97	=97	=97	=97	=97
1G]	1B-]	1B-	0r	0r
1E	1G	1c	.	.
=98	=98	=98	=98	=98
2F\	0r	1.d	0r	0r
1G	.	.	.	.
4F\	.	2e\	.	.
4E\	.	.	.	.
=99	=99	=99	=99	=99
2D\	1r	2f\	0r	1r
2F\	.	1d	.	.
1E	1G	.	.	2r
.	.	2c#i\	.	[2g/
=100	=100	=100	=100	=100
1D	1A	1d	1r	2g/]
.	.	.	.	2f/
2r	1G	2r	2r	2g/
2GG/	.	2d\	2g/	2b-\
=101	=101	=101	=101	=101
1GG	1D	1d	1g	1b-
1GG	2D/	1d	1g	1b-
.	2D/	.	.	.
=102	=102	=102	=102	=102
1C	1E	1c	1a	1cc
1C	1E	1c	1a	1cc
=103	=103	=103	=103	=103
[0GG	[0D	1.d	1g	1b-
.	.	.	2r	2r
.	.	4c\	2g/	2b-\
.	.	4B-\	.	.
=104	=104	=104	=104	=104
0GG]	0D]	0B-	1g	1b-
.	.	.	1b-	1dd
=105	=105	=105	=105	=105
2r	0r	0r	2a/	2cc\
2.GG/	.	.	1b-	1dd
4AA/	.	.	.	.
4BB-/	.	.	4a/	4cc\
4C/	.	.	4g/	4b-\
=106	=106	=106	=106	=106
1D	1r	0r	1f	1a
1GG	2.D/	.	1g	1b-
.	4E/	.	.	.
=107	=107	=107	=107	=107
0r	2F/	0r	2r	2a/
.	2.G/	.	1dd	1b-
.	4A/	.	.	.
.	4B-\	.	4cc\	4a/
.	4c\	.	4b-\	4g/
=108	=108	=108	=108	=108
0r	1d	0F	2.a/	2.f/
.	.	.	4b-\	4g/
.	2c\	.	2cc\	4a/
.	.	.	.	4b-\
.	2A/	.	[2f/	[2cc\
=109	=109	=109	=109	=109
0r	1B-	1G	2f/]	4cc\]
.	.	.	.	4b-\
.	.	.	2e/	1b-
.	1c	1F	1f	.
.	.	.	.	2a/
=110	=110	=110	=110	=110
1.BB-	1B-	2.B-\	0r	1b-
.	.	4c\	.	.
.	1r	2d\	.	1r
2AA/	.	[2c\	.	.
=111	=111	=111	=111	=111
1BB-	0r	2c\]	0r	0r
.	.	1B-	.	.
1C	.	.	.	.
.	.	2A/	.	.
=112	=112	=112	=112	=112
0BB-	0B-	2.B-\	0f	0dd
.	.	8A/L	.	.
.	.	8G/J	.	.
.	.	1F	.	.
=113	=113	=113	=113	=113
0r	1G	0r	1g	1b-
.	1A	.	1e	1cc
=114	=114	=114	=114	=114
1GG	1B-	1G	2.d/	1.dd
.	.	.	4e/	.
2D\	2A/	2F/	2f/	.
2GG/	[2G/	[2B-\	2g/	[2b-\
=115	=115	=115	=115	=115
1G	2G/]	4B-\]	2d/	2b-\]
.	.	4c\	.	.
.	4F/	1.d	1g	4a/
.	4E/	.	.	4g/
1D	1F	.	.	1a
.	.	.	2f/	.
=116	=116	=116	=116	=116
1GG	1B-	1d	1g	1g
2r	2A/	2d\	2a/	2f/
2GG/	[2d\	2d\	[2b-\	[2g/
=117	=117	=117	=117	=117
2GG/	4d\]	[0dl	4b-\]	4g/]
.	4c\	.	4a/	4a/
2GG/	4B-\	.	4g/	1b-
.	4A/	.	4f/	.
1GG	1B-	.	1g	.
.	.	.	.	4a/
.	.	.	.	4g/
=118	=118	=118	=118	=118
0Dl	0Al	0d]	0al	0fl
!!LO:LB:i:g=z
=119||	=119||	=119||	=119||	=119||
*>B	*>B	*>B	*>B	*>B
!!section: Secunda pars: Tollite hostias
!!!OMD: Secunda pars: Tollite hostias
*M2/1	*M2/1	*M2/1	*M2/1	*M2/1
*met(C|)	*met(C|)	*met(C|)	*met(C|)	*met(C|)
0GG	0G	0d	0g	0b-
=120	=120	=120	=120	=120
1GG	1G	1d	1g	1b-
1GG	1G	[1d	1g	1b-
=121	=121	=121	=121	=121
1.D	2.A/	2d\]	1.f	1.a
.	.	4c\	.	.
.	4G/	4B-\	.	.
.	2F/	2A/	.	.
4C/	4E/	2d\	2g/	2b-\
4BB-/	4D/	.	.	.
=122	=122	=122	=122	=122
2AA/	2E/	2c\	2a/	2cc\
2GG/	2G/	2B-\	1b-	1dd
2BB-/	2D/	2G/	.	.
2C/	2E/	[2A/	4a/	4cc\
.	.	.	4g/	4b-\
=123	=123	=123	=123	=123
1D	1F	2A/]	2f/	2a/
.	.	2B-\	2d/	1dd
1AA	1C	1A	1e	.
.	.	.	.	2cc#i\
=124	=124	=124	=124	=124
0D	2.F/	1A	0d	1dd
.	4G/	.	.	.
.	2A/	1F	.	2r
.	[2B-\	.	.	[2dd\
=125	=125	=125	=125	=125
1GG	2B-\]	0r	1r	2dd\]
.	4A/	.	.	2dd\
.	4G/	.	.	.
1r	2A/	.	2r	2cc\
.	2G/	.	2dd\	[2b-\
=126	=126	=126	=126	=126
0r	1B-	1r	1dd	4b-\]
.	.	.	.	4a/
.	.	.	.	1g
.	1A	2r	1cc	.
.	.	2c\	.	2f#i/
=127	=127	=127	=127	=127
0r	1G	1d	1b-	1g
.	1r	2c\	2a/	1r
.	.	[2d\	[2b-\	.
=128	=128	=128	=128	=128
0r	0r	4d\]	4b-\]	0r
.	.	4c\	4a/	.
.	.	2B-\	1g	.
.	.	1A	.	.
.	.	.	2f#i/	.
=129	=129	=129	=129	=129
0r	1.G	1G	0g	1.b-
.	.	[1d	.	.
.	2G/	.	.	2b-\
=130	=130	=130	=130	=130
0r	1G	2d\]	0r	1dd
.	.	2d\	.	.
.	1D	1d	.	2a/
.	.	.	.	2b-\
=131	=131	=131	=131	=131
1r	1F	2A/	0r	2a/
.	.	1c	.	4g/
.	.	.	.	4f/
1G	1E	.	.	1g
.	.	2c\	.	.
=132	=132	=132	=132	=132
1A	1D	1d	1r	0f
1F	2r	2r	1a	.
.	2d\	2A/	.	.
=133	=133	=133	=133	=133
1G	1.d	1B-	1g	1r
1D	.	1A	2a/	1a
.	2d\	.	[2f/	.
=134	=134	=134	=134	=134
2r	1A	1F	4f/]	2a/
.	.	.	4g/	.
2D\	.	.	2a/	2a/
2E\	1c	2G/	2g/	2e/
2F\	.	2A/	2f/	[2a/
=135	=135	=135	=135	=135
1G	1B-	2B-\	1d	2a/]
.	.	1.d	.	1g
1D	1A	.	1a	.
.	.	.	.	2f#i/
=136	=136	=136	=136	=136
1GG	1G	1d	1b-	1g
2r	2r	1B-	1g	1d
2GG/	[2G/	.	.	.
=137	=137	=137	=137	=137
1C	2G/]	1G	0r	0r
.	1E	.	.	.
1AA	.	1A	.	.
.	[2F/	.	.	.
=138	=138	=138	=138	=138
1BB-	2F/]	1F	0r	0r
.	1D	.	.	.
1GG	.	1r	.	.
.	[2D/	.	.	.
=139	=139	=139	=139	=139
1GG	2D/]	0r	1g	0r
.	2E/	.	.	.
2AA/	1F	.	2.f/	.
[2BB-/	.	.	.	.
.	.	.	4e/	.
=140	=140	=140	=140	=140
2BB-/]	2G/	0r	2d/	0r
2C/	2.A/	.	2c/	.
2.D\	.	.	2.f/	.
.	4G/	.	.	.
.	4F/	.	.	.
4E\	4E/	.	4g/	.
=141	=141	=141	=141	=141
2F\	2D/	0r	2a/	0r
2G\	1d	.	1b-	.
1E	.	.	.	.
.	2c#i\	.	4a/	.
.	.	.	4g/	.
=142	=142	=142	=142	=142
1D	0d	2r	1f	0r
.	.	2F/	.	.
2r	.	2G/	1d	.
2BB-/	.	2G/	.	.
=143	=143	=143	=143	=143
2C/	0r	4A/	0r	0r
.	.	4B-\	.	.
2C/	.	4c\	.	.
.	.	4A/	.	.
1D	.	2B-\	.	.
.	.	[2A/	.	.
=144	=144	=144	=144	=144
2C/	0r	2A/]	0r	0r
2BB-/	.	1G	.	.
1AA	.	.	.	.
.	.	2F#i/	.	.
=145	=145	=145	=145	=145
0GG	0r	0G	1r	1dd
.	.	.	1b-	2dd\
.	.	.	.	[2b-\
=146	=146	=146	=146	=146
0r	0r	0r	2b-\	2b-\]
.	.	.	1g	2b-\
.	.	.	.	2b-\
.	.	.	2g/	2cc\
=147	=147	=147	=147	=147
0r	0r	0r	2g/	1dd
.	.	.	2a/	.
.	.	.	1b-	2r
.	.	.	.	2g/
=148	=148	=148	=148	=148
1r	0r	0r	2r	2a/
.	.	.	2d/	2b-\
2r	.	.	2e/	2cc\
2D\	.	.	2f/	2a/
=149	=149	=149	=149	=149
2G\	0r	0r	2g/	2b-\
2F\	.	.	2a/	2cc\
2D\	.	.	2b-\	2dd\
[2F\	.	.	[2a/	[2cc\
=150	=150	=150	=150	=150
2F\]	0r	0r	4a/]	4cc\]
.	.	.	4g/	4b-\
2G\	.	.	4f#i/	4a/
.	.	.	4e/	4g/
1D	.	.	1f#i	1a
=151	=151	=151	=151	=151
*M3/1	*M3/1	*M3/1	*M3/1	*M3/1
*met(O/3)	*met(O/3)	*met(O/3)	*met(O/3)	*met(O/3)
0.GG	1r	0d	0.g	0.g
.	0G	.	.	.
.	.	1d	.	.
=152	=152	=152	=152	=152
0.r	1G	1B-	0.r	0.r
.	1E	0c	.	.
.	[1F	.	.	.
=153	=153	=153	=153	=153
0.r	1F]	1d	0.r	0.r
.	1G	1r	.	.
.	1r	1d	.	.
=154	=154	=154	=154	=154
0.r	1G	1d	0.r	0.r
.	1G	1e	.	.
.	1A	1f	.	.
=155	=155	=155	=155	=155
0.r	1.B-	2f\	0.r	0.r
.	.	2e\	.	.
.	.	2d\	.	.
.	2A/	2c\	.	.
.	1G	2B-\	.	.
.	.	2A/	.	.
=156	=156	=156	=156	=156
0.r	1F	0d	0.r	0.r
.	0E	.	.	.
.	.	1c#i	.	.
=157	=157	=157	=157	=157
*M2/1	*M2/1	*M2/1	*M2/1	*M2/1
*met(C|)	*met(C|)	*met(C|)	*met(C|)	*met(C|)
1GG	1D	0d	0r	0r
2GG/	2r	.	.	.
2GG/	2D/	.	.	.
=158	=158	=158	=158	=158
2.BB-/	2D/	0r	0r	0r
.	2D/	.	.	.
4C/	.	.	.	.
1D	2.F/	.	.	.
.	4G/	.	.	.
=159	=159	=159	=159	=159
2r	1A	0r	0r	0r
2D\	.	.	.	.
2E-i\	2r	.	.	.
[2D\	2A/	.	.	.
=160	=160	=160	=160	=160
2D\]	2B-\	0r	0r	0r
1C	1A	.	.	.
2BB-/	[2G/	.	.	.
=161	=161	=161	=161	=161
1AA	2G/]	0r	0r	1r
.	2F#i/	.	.	.
[1GG	[1G	.	.	2r
.	.	.	.	2g/
=162	=162	=162	=162	=162
1GG]	1G]	1r	2r	2g/
.	.	.	2g/	2g/
1r	1r	2r	2g/	2.b-\
.	.	2G/	2g/	.
.	.	.	.	4cc\
=163	=163	=163	=163	=163
0r	0r	2G/	2.b-\	2dd\
.	.	2G/	.	2g/
.	.	.	4cc\	.
.	.	2.B-\	2dd\	2r
.	.	.	2g/	2b-\
.	.	4c\	.	.
=164	=164	=164	=164	=164
0r	0r	2d\	2r	2a/
.	.	2G/	2b-\	2g/
.	.	2r	2a/	2f/
.	.	2G/	2g/	2g/
=165	=165	=165	=165	=165
0r	0r	4B-\	2.f/	4d/
.	.	4c\	.	4e/
.	.	4d\	.	4f/
.	.	4e\	4e/	4g/
.	.	2d\	2f/	2a/
.	.	[2G/	[2g/	[2b-\
=166	=166	=166	=166	=166
0r	0r	4G/]	4g/]	4b-\]
.	.	4A/	4f/	4a/
.	.	2B-\	4e/	1dd
.	.	.	4d/	.
.	.	2A/	1e	.
.	.	2A/	.	2cc#i\
=167	=167	=167	=167	=167
0r	2r	1D	2d/	1dd
.	2d\	.	2f/	.
.	2c\	2r	2e/	2r
.	2B-\	2G/	2d/	2dd\
=168	=168	=168	=168	=168
0r	2A/	2A/	2f/	2cc\
.	2G/	2B-\	2g/	2b-\
.	2F/	2c\	2a/	2a/
.	2D/	2d\	2f/	[2b-\
=169	=169	=169	=169	=169
0r	1E	2B-\	1g	4b-\]
.	.	.	.	4a/
.	.	2c\	.	1g
.	1D	1A	2r	.
.	.	.	2a/	2f#i/
=170	=170	=170	=170	=170
1.GG	1.d	1G	1b-	1g
.	.	2r	2b-\	2r
[2G\	[2B-\	2G/	2b-\	2dd\
=171	=171	=171	=171	=171
2G\]	2B-\]	2d\	1b-	2dd\
2G\	2B-\	2d\	.	2dd\
1C	1c	1e	1g	1cc
=172	=172	=172	=172	=172
1D	0F	0d	0f	0a
2r	.	.	.	.
2D\	.	.	.	.
=173	=173	=173	=173	=173
2E-i\	2r	0r	0r	0r
2D\	2A/	.	.	.
2BB-/	2B-\	.	.	.
2C/	2A/	.	.	.
=174	=174	=174	=174	=174
2D\	2F/	0r	0r	0r
2E-i\	2G/	.	.	.
1D	2A/	.	.	.
.	2B-\	.	.	.
=175	=175	=175	=175	=175
2r	1A	0r	0r	0r
2D\	.	.	.	.
2D\	2r	.	.	.
2D\	2A/	.	.	.
=176	=176	=176	=176	=176
2F\	2A/	0r	0r	0r
2.C/	2A/	.	.	.
.	2c\	.	.	.
4D\	.	.	.	.
4E\	[2G/	.	.	.
4F\	.	.	.	.
=177	=177	=177	=177	=177
1G	4G/]	0r	0r	0r
.	4A/	.	.	.
.	4B-\	.	.	.
.	4c\	.	.	.
2r	1d	.	.	.
[2GG/	.	.	.	.
=178	=178	=178	=178	=178
4GG/]	2r	0r	0r	0r
4AA/	.	.	.	.
4BB-/	2.D/	.	.	.
4C/	.	.	.	.
2.D\	.	.	.	.
.	4E/	.	.	.
.	4F/	.	.	.
4E\	4G/	.	.	.
=179	=179	=179	=179	=179
2F\	2A/	0r	0r	0r
2D\	1B-	.	.	.
1C	.	.	.	.
.	2A/	.	.	.
=180	=180	=180	=180	=180
1BB-	1B-	1.d	1.f	1.b-
2r	2r	.	.	.
2BB-/	2B-\	2d\	2f/	2b-\
=181	=181	=181	=181	=181
2BB-/	2B-\	1d	1f	1b-
2BB-/	2B-\	.	.	.
1E-	1G	1c	1g	1cc
=182	=182	=182	=182	=182
1D	1F	1A	1a	1dd
[1GG	[1D	[1d	[1g	[1b-
=183	=183	=183	=183	=183
2GG/]	2D/]	2d\]	2g/]	2b-\]
2GG/	2D/	2d\	2g/	2b-\
1C	1E-i	1c	1g	1cc
=184	=184	=184	=184	=184
1GG	1D	2d\	1g	1b-
.	.	1G	.	.
1r	1r	.	2e/	1a
.	.	2F/	[2f/	.
=185	=185	=185	=185	=185
1r	1r	1D	4f/]	2b-\
.	.	.	4g/	.
.	.	.	1a	1dd
2r	2r	1E	.	.
2G\	2C/	.	2g/	2cc\
=186	=186	=186	=186	=186
2D\	2F/	1D	1a	2.dd\
2F\	2D/	.	.	.
.	.	.	.	4cc\
4BB-/	2.F/	[1d	1r	2b-\
4C/	.	.	.	.
4D\	.	.	.	[2a/
4E\	4G/	.	.	.
=187	=187	=187	=187	=187
2F\	2A/	1d]	0r	2a/]
2G\	2B-\	.	.	1g
1D	1A	1d	.	.
.	.	.	.	2f#i/
=188	=188	=188	=188	=188
1GG	1G	1B-	0r	0g
1C	1E	1G	.	.
=189	=189	=189	=189	=189
2BB-/	2D/	2r	0r	0r
2C/	1G	2G/	.	.
1AA	.	1c	.	.
.	2F#i/	.	.	.
=190	=190	=190	=190	=190
2GG/	1G	2B-\	0r	0r
1G	.	2G/	.	.
.	1r	1A	.	.
2F\	.	.	.	.
=191	=191	=191	=191	=191
2G\	0r	2G/	0r	0r
2.F\	.	2c\	.	.
.	.	4c\	.	.
4G\	.	4B-\	.	.
4A\	.	4c\	.	.
4F\	.	4d\	.	.
=192	=192	=192	=192	=192
2G\	0r	2e-i\	0r	0r
4F\	.	1c	.	.
4E\	.	.	.	.
1D	.	.	.	.
.	.	2Bni\	.	.
=193	=193	=193	=193	=193
1C	1r	1c	1r	1r
1C	1E	2r	1g	[1cc
.	.	2c\	.	.
=194	=194	=194	=194	=194
2C/	2E/	2c\	2g/	2cc\]
2C/	2E/	2c\	2g/	2cc\
1F	1A	1c	1f	1a
=195	=195	=195	=195	=195
1BB-	1F	1B-	1d	2.b-\
.	.	.	.	4cc\
1BB-	1F	1B-	1f	[1dd
=196	=196	=196	=196	=196
1BB-	1.F	1.B-	1.f	2dd\]
.	.	.	.	1dd
1BB-	.	.	.	.
.	[2D/	2B-\	2f/	2dd\
=197	=197	=197	=197	=197
0r	2D/]	1B-	2f/	1dd
.	1G	.	2g/	.
.	.	1c	1a	1cc
.	2F#i/	.	.	.
=198	=198	=198	=198	=198
1GG	1G	2r	2d/	2b-\
.	.	2.d\	2g/	2b-\
1D	1r	.	2f/	2a/
.	.	4c\	.	.
.	.	4B-\	[2d/	[2b-\
.	.	4A/	.	.
=199	=199	=199	=199	=199
1E	2r	1G	2d/]	2b-\]
.	2C/	.	2c/	4a/
.	.	.	.	4g/
2D\	2F/	2A/	[1d	2f/
[2GG/	2G/	[2d\	.	[2b-\
=200	=200	=200	=200	=200
4GG/]	2.D/	4d\]	0d]	4b-\]
4AA/	.	4c\	.	4a/
4BB-/	.	2B-\	.	1g
4C/	4E/	.	.	.
1D	1F	1A	.	.
.	.	.	.	2f#i/
=201	=201	=201	=201	=201
1GG	1D	1G	1d	1g
1r	1r	1r	1r	1r
=202	=202	=202	=202	=202
1GG	1D	1d	1g	1b-
2GG/	2D/	2d\	2g/	2b-\
2GG/	2D/	2d\	2g/	2b-\
=203	=203	=203	=203	=203
1GG	1D	1d	1g	1b-
1D	1F	1d	1f	1a
=204	=204	=204	=204	=204
0r	0r	1d	2.f/	0r
.	.	.	4g/	.
.	.	2c\	2a/	.
.	.	[2d\	[2b-\	.
=205	=205	=205	=205	=205
0r	0r	4d\]	2b-\]	0r
.	.	4c\	.	.
.	.	4B-\	1a	.
.	.	4A/	.	.
.	.	1B-	.	.
.	.	.	2g/	.
=206	=206	=206	=206	=206
2r	2r	0A	1a	2r
1D	1F	.	.	1a
.	.	.	1r	.
2D\	2F/	.	.	2a/
=207	=207	=207	=207	=207
2BB-/	2G/	0r	0r	2b-\
2D\	2A/	.	.	2a/
2G\	2B-\	.	.	2g/
2F\	[2c\	.	.	[2a/
=208	=208	=208	=208	=208
1E-	4c\]	0r	0r	4a/]
.	4B-\	.	.	4g/
.	4A/	.	.	1g
.	4G/	.	.	.
1D	1A	.	.	.
.	.	.	.	2f#i/
=209	=209	=209	=209	=209
1GG	1G	1r	1r	1g
2r	2r	2r	2r	2r
2GG/	2D/	2d\	2g/	2b-\
=210	=210	=210	=210	=210
2GG/	2D/	2d\	2g/	2b-\
2GG/	2D/	2d\	2g/	2b-\
1D	1F	1d	1f	1a
=211	=211	=211	=211	=211
2D\	2F/	2B-\	2d/	2b-\
2D\	2F/	2B-\	2d/	2b-\
2C/	2E/	2A/	2e/	2cc\
2C/	2E/	2A/	2e/	2cc\
=212	=212	=212	=212	=212
1BB-	1F	1B-	2.d/	1dd
.	.	.	4e/	.
1r	1r	2r	2f/	2cc\
.	.	[2G/	[2g/	[2b-\
=213	=213	=213	=213	=213
0r	0r	2G/]	2g/]	4b-\]
.	.	.	.	4a/
.	.	2A/	1f	4g/
.	.	.	.	4f/
.	.	2B-\	.	1g
.	.	2c\	2e/	.
=214	=214	=214	=214	=214
0r	0r	1F	1f	1f
.	.	1r	1r	1r
=215	=215	=215	=215	=215
1.D	1.F	1.d	1.f	1.a
2D\	2F/	2d\	2f/	2a/
=216	=216	=216	=216	=216
1D	1F	2d\	1f	1a
.	.	2d\	.	.
1D	1F	1d	1f	1a
=217	=217	=217	=217	=217
1GG	1D	2r	1g	1b-
.	.	2.d\	.	.
2r	2r	.	2f/	2a/
.	.	4c\	.	.
[2GG/	2D/	4B-\	[2g/	[2b-\
.	.	4A/	.	.
=218	=218	=218	=218	=218
4GG/]	2.D/	2G/	2g/]	2b-\]
4AA/	.	.	.	.
4BB-/	.	2d\	4f/	4a/
4C/	4E/	.	4e/	4g/
2D\	4F/	2A/	1d	2f/
.	4D/	.	.	.
2F\	2d\	[2d\	.	[2a/
=219	=219	=219	=219	=219
1E	2B-\	2d\]	1g	4a/]
.	.	.	.	4g/
.	2c\	2c\	.	1g
1D	1A	[1d	1a	.
.	.	.	.	2f/
=220	=220	=220	=220	=220
0GG	1G	1d]	1b-	2g/
.	.	.	.	1b-
.	1B-	[1d	1g	.
.	.	.	.	4a/
.	.	.	.	4g/
=221	=221	=221	=221	=221
0D	0A	0d]	0a	0f#i
=222	=222	=222	=222	=222
[0GGl	[0Gl	[0B-l	1b-	[0gl
.	.	.	2g/	.
.	.	.	[2b-\	.
=223	=223	=223	=223	=223
0GG_	0G_	0B-_	4b-\]	0g_
.	.	.	4a/	.
.	.	.	4g/	.
.	.	.	4f/	.
.	.	.	2g/	.
.	.	.	4f/	.
.	.	.	4e/	.
=224	=224	=224	=224	=224
0GG]	0G]	0B-]	0dl	0g]
==	==	==	==	==
*-	*-	*-	*-	*-
!!!RDF**kern: l=long note in original notation
!!!RDF**kern: i=editorial accidental
!!!ENC:	Will Watson 01/07/2011
!!!END:	2011/07/01/ 
!!!EED:	Jesse Rodin
!!!EEV:	2011/10/25/
!!attribution-level@Jos: 4 (questionable)
!!!ONB:	Translated from MusicXML and edited on 2011/10/25/ by Craig Sapp
!!muse2ps: C^@{COA}?\n@{SCT}^i2I150v90,90,90,90,130Q16
